images/6604380.svg

<?xml version="1.0" encoding="UTF-8"?>
<svg xmlns="http://www.w3.org/2000/svg" xmlns:xlink="http://www.w3.org/1999/xlink" width="300pt" height="300pt" viewBox="0 0 300 300" version="1.1">
<defs>
<g>
<symbol overflow="visible" id="glyph0-0">
<path style="stroke:none;" d="M 0.453125 1.59375 L 0.453125 -6.34375 L 4.953125 -6.34375 L 4.953125 1.59375 Z M 0.953125 1.09375 L 4.453125 1.09375 L 4.453125 -5.84375 L 0.953125 -5.84375 Z M 0.953125 1.09375 "/>
</symbol>
<symbol overflow="visible" id="glyph0-1">
<path style="stroke:none;" d="M 3.546875 -5.953125 C 2.898438 -5.953125 2.382812 -5.710938 2 -5.234375 C 1.625 -4.753906 1.4375 -4.101562 1.4375 -3.28125 C 1.4375 -2.445312 1.625 -1.789062 2 -1.3125 C 2.382812 -0.832031 2.898438 -0.59375 3.546875 -0.59375 C 4.191406 -0.59375 4.703125 -0.832031 5.078125 -1.3125 C 5.453125 -1.789062 5.640625 -2.445312 5.640625 -3.28125 C 5.640625 -4.101562 5.453125 -4.753906 5.078125 -5.234375 C 4.703125 -5.710938 4.191406 -5.953125 3.546875 -5.953125 Z M 3.546875 -6.6875 C 4.460938 -6.6875 5.195312 -6.375 5.75 -5.75 C 6.300781 -5.132812 6.578125 -4.3125 6.578125 -3.28125 C 6.578125 -2.238281 6.300781 -1.410156 5.75 -0.796875 C 5.195312 -0.179688 4.460938 0.125 3.546875 0.125 C 2.617188 0.125 1.878906 -0.179688 1.328125 -0.796875 C 0.773438 -1.410156 0.5 -2.238281 0.5 -3.28125 C 0.5 -4.3125 0.773438 -5.132812 1.328125 -5.75 C 1.878906 -6.375 2.617188 -6.6875 3.546875 -6.6875 Z M 3.546875 -6.6875 "/>
</symbol>
<symbol overflow="visible" id="glyph0-2">
<path style="stroke:none;" d="M 0.890625 -6.5625 L 4.65625 -6.5625 L 4.65625 -5.8125 L 1.765625 -5.8125 L 1.765625 -3.875 L 4.375 -3.875 L 4.375 -3.140625 L 1.765625 -3.140625 L 1.765625 0 L 0.890625 0 Z M 0.890625 -6.5625 "/>
</symbol>
<symbol overflow="visible" id="glyph0-3">
<path style="stroke:none;" d="M 0.890625 -6.5625 L 1.765625 -6.5625 L 1.765625 -3.875 L 5 -3.875 L 5 -6.5625 L 5.890625 -6.5625 L 5.890625 0 L 5 0 L 5 -3.125 L 1.765625 -3.125 L 1.765625 0 L 0.890625 0 Z M 0.890625 -6.5625 "/>
</symbol>
<symbol overflow="visible" id="glyph0-4">
<path style="stroke:none;" d="M 5.796875 -6.0625 L 5.796875 -5.125 C 5.492188 -5.394531 5.171875 -5.597656 4.828125 -5.734375 C 4.492188 -5.878906 4.140625 -5.953125 3.765625 -5.953125 C 3.015625 -5.953125 2.4375 -5.722656 2.03125 -5.265625 C 1.632812 -4.804688 1.4375 -4.144531 1.4375 -3.28125 C 1.4375 -2.414062 1.632812 -1.753906 2.03125 -1.296875 C 2.4375 -0.835938 3.015625 -0.609375 3.765625 -0.609375 C 4.140625 -0.609375 4.492188 -0.675781 4.828125 -0.8125 C 5.171875 -0.945312 5.492188 -1.15625 5.796875 -1.4375 L 5.796875 -0.5 C 5.484375 -0.289062 5.15625 -0.132812 4.8125 -0.03125 C 4.46875 0.0703125 4.097656 0.125 3.703125 0.125 C 2.710938 0.125 1.929688 -0.175781 1.359375 -0.78125 C 0.785156 -1.394531 0.5 -2.226562 0.5 -3.28125 C 0.5 -4.332031 0.785156 -5.160156 1.359375 -5.765625 C 1.929688 -6.378906 2.710938 -6.6875 3.703125 -6.6875 C 4.097656 -6.6875 4.46875 -6.632812 4.8125 -6.53125 C 5.164062 -6.425781 5.492188 -6.269531 5.796875 -6.0625 Z M 5.796875 -6.0625 "/>
</symbol>
<symbol overflow="visible" id="glyph0-5">
<path style="stroke:none;" d="M 0.84375 -6.84375 L 1.65625 -6.84375 L 1.65625 0 L 0.84375 0 Z M 0.84375 -6.84375 "/>
</symbol>
</g>
</defs>
<g id="surface45033">
<rect x="0" y="0" width="300" height="300" style="fill:rgb(100%,100%,100%);fill-opacity:1;stroke:none;"/>
<path style="fill:none;stroke-width:1.2;stroke-linecap:butt;stroke-linejoin:miter;stroke:rgb(0%,0%,0%);stroke-opacity:1;stroke-miterlimit:10;" d="M 41.464844 99.714844 L 64.457031 107.164062 "/>
<path style="fill:none;stroke-width:1.2;stroke-linecap:butt;stroke-linejoin:miter;stroke:rgb(0%,0%,0%);stroke-opacity:1;stroke-miterlimit:10;" d="M 64.457031 107.164062 L 69.507812 130.800781 "/>
<path style="fill:none;stroke-width:1.2;stroke-linecap:butt;stroke-linejoin:miter;stroke:rgb(0%,0%,0%);stroke-opacity:1;stroke-miterlimit:10;" d="M 68.167969 128.292969 L 62.5 131.3125 "/>
<path style="fill:none;stroke-width:1.2;stroke-linecap:butt;stroke-linejoin:miter;stroke:rgb(100%,0%,0%);stroke-opacity:1;stroke-miterlimit:10;" d="M 62.5 131.3125 L 56.832031 134.332031 "/>
<path style="fill:none;stroke-width:1.2;stroke-linecap:butt;stroke-linejoin:miter;stroke:rgb(0%,0%,0%);stroke-opacity:1;stroke-miterlimit:10;" d="M 70.84375 133.3125 L 65.175781 136.332031 "/>
<path style="fill:none;stroke-width:1.2;stroke-linecap:butt;stroke-linejoin:miter;stroke:rgb(100%,0%,0%);stroke-opacity:1;stroke-miterlimit:10;" d="M 65.175781 136.332031 L 59.507812 139.351562 "/>
<path style="fill:none;stroke-width:1.2;stroke-linecap:butt;stroke-linejoin:miter;stroke:rgb(0%,0%,0%);stroke-opacity:1;stroke-miterlimit:10;" d="M 69.507812 130.800781 L 81.003906 134.527344 "/>
<path style="fill:none;stroke-width:1.2;stroke-linecap:butt;stroke-linejoin:miter;stroke:rgb(100%,0%,0%);stroke-opacity:1;stroke-miterlimit:10;" d="M 81.003906 134.527344 L 92.5 138.25 "/>
<path style=" stroke:none;fill-rule:nonzero;fill:rgb(100%,100%,100%);fill-opacity:1;" d="M 50.167969 131.34375 L 58.167969 131.34375 L 58.167969 142.34375 L 50.167969 142.34375 Z M 50.167969 131.34375 "/>
<g style="fill:rgb(100%,0%,0%);fill-opacity:1;">
  <use xlink:href="#glyph0-1" x="50.167969" y="140.006836"/>
</g>
<path style="fill:none;stroke-width:1;stroke-linecap:butt;stroke-linejoin:miter;stroke:rgb(0%,0%,0%);stroke-opacity:1;stroke-miterlimit:10;" d="M 97.550781 161.886719 L 97.550781 161.886719 M 97.441406 158.890625 L 96.421875 159.109375 M 97.335938 155.890625 L 95.296875 156.328125 M 97.226562 152.894531 L 94.167969 153.546875 M 97.121094 149.894531 L 93.042969 150.765625 M 97.011719 146.898438 L 91.914062 147.988281 M 96.90625 143.898438 L 90.789062 145.207031 M 96.800781 140.902344 L 89.660156 142.425781 M 96.691406 137.902344 L 88.535156 139.644531 M 96.671875 137.359375 L 88.328125 139.140625 "/>
<path style=" stroke:none;fill-rule:nonzero;fill:rgb(100%,100%,100%);fill-opacity:1;" d="M 88.5 132.75 L 96.5 132.75 L 96.5 143.75 L 88.5 143.75 Z M 88.5 132.75 "/>
<g style="fill:rgb(100%,0%,0%);fill-opacity:1;">
  <use xlink:href="#glyph0-1" x="88.5" y="141.413086"/>
</g>
<path style="fill:none;stroke-width:1.2;stroke-linecap:butt;stroke-linejoin:miter;stroke:rgb(0%,0%,0%);stroke-opacity:1;stroke-miterlimit:10;" d="M 97.550781 161.886719 L 97.570312 186.058594 "/>
<path style="fill:none;stroke-width:1.2;stroke-linecap:butt;stroke-linejoin:miter;stroke:rgb(0%,0%,0%);stroke-opacity:1;stroke-miterlimit:10;" d="M 97.550781 161.886719 L 73.511719 164.4375 "/>
<path style="fill:none;stroke-width:1.2;stroke-linecap:butt;stroke-linejoin:miter;stroke:rgb(0%,0%,0%);stroke-opacity:1;stroke-miterlimit:10;" d="M 120.53125 154.398438 L 97.550781 161.886719 "/>
<path style="fill:none;stroke-width:1.2;stroke-linecap:butt;stroke-linejoin:miter;stroke:rgb(0%,0%,0%);stroke-opacity:1;stroke-miterlimit:10;" d="M 97.570312 186.058594 L 120.566406 193.507812 "/>
<path style="fill:none;stroke-width:1;stroke-linecap:butt;stroke-linejoin:miter;stroke:rgb(0%,0%,0%);stroke-opacity:1;stroke-miterlimit:10;" d="M 97.570312 186.058594 L 97.570312 186.058594 M 94.875 187.375 L 95.488281 188.21875 M 92.179688 188.695312 L 93.40625 190.378906 M 89.484375 190.011719 L 91.324219 192.539062 M 86.789062 191.328125 L 89.246094 194.699219 M 84.09375 192.644531 L 87.164062 196.859375 M 81.398438 193.964844 L 85.082031 199.019531 M 78.703125 195.28125 L 83 201.179688 M 76.007812 196.597656 L 80.917969 203.339844 M 75.519531 196.835938 L 80.539062 203.734375 "/>
<path style=" stroke:none;fill-rule:nonzero;fill:rgb(0%,0%,0%);fill-opacity:1;" d="M 134.757812 173.941406 L 117.113281 191.003906 L 124.019531 196.011719 Z M 134.757812 173.941406 "/>
<path style="fill:none;stroke-width:1.2;stroke-linecap:butt;stroke-linejoin:miter;stroke:rgb(0%,0%,0%);stroke-opacity:1;stroke-miterlimit:10;" d="M 134.757812 173.941406 L 120.53125 154.398438 "/>
<path style="fill:none;stroke-width:1.2;stroke-linecap:butt;stroke-linejoin:miter;stroke:rgb(0%,0%,0%);stroke-opacity:1;stroke-miterlimit:10;" d="M 158.792969 171.390625 L 134.757812 173.941406 "/>
<path style="fill:none;stroke-width:1.2;stroke-linecap:butt;stroke-linejoin:miter;stroke:rgb(0%,0%,0%);stroke-opacity:1;stroke-miterlimit:10;" d="M 120.53125 154.398438 L 130.339844 132.308594 "/>
<path style="fill:none;stroke-width:1;stroke-linecap:butt;stroke-linejoin:miter;stroke:rgb(0%,0%,0%);stroke-opacity:1;stroke-miterlimit:10;" d="M 120.53125 154.398438 L 120.53125 154.398438 M 119.601562 151.546875 L 118.679688 152.035156 M 118.671875 148.691406 L 116.832031 149.671875 M 117.742188 145.839844 L 114.980469 147.3125 M 116.8125 142.988281 L 113.132812 144.949219 M 115.882812 140.136719 L 111.285156 142.585938 M 114.957031 137.28125 L 109.433594 140.222656 M 114.027344 134.429688 L 107.585938 137.863281 M 113.097656 131.578125 L 105.734375 135.5 M 112.929688 131.058594 L 105.398438 135.070312 "/>
<path style="fill:none;stroke-width:1.2;stroke-linecap:butt;stroke-linejoin:miter;stroke:rgb(0%,0%,0%);stroke-opacity:1;stroke-miterlimit:10;" d="M 130.339844 132.308594 L 154.378906 129.757812 "/>
<path style="fill:none;stroke-width:1.2;stroke-linecap:butt;stroke-linejoin:miter;stroke:rgb(0%,0%,0%);stroke-opacity:1;stroke-miterlimit:10;" d="M 154.378906 129.757812 L 168.605469 149.300781 "/>
<path style="fill:none;stroke-width:1;stroke-linecap:butt;stroke-linejoin:miter;stroke:rgb(0%,0%,0%);stroke-opacity:1;stroke-miterlimit:10;" d="M 154.378906 129.757812 L 154.378906 129.757812 M 156.054688 127.269531 L 155.101562 126.847656 M 157.730469 124.78125 L 155.824219 123.933594 M 159.40625 122.292969 L 156.546875 121.023438 M 161.082031 119.804688 L 157.269531 118.113281 M 162.757812 117.316406 L 157.992188 115.199219 M 164.433594 114.828125 L 158.714844 112.289062 M 166.105469 112.339844 L 159.4375 109.375 M 167.78125 109.851562 L 160.160156 106.464844 M 168.085938 109.398438 L 160.289062 105.9375 "/>
<path style="fill:none;stroke-width:1.2;stroke-linecap:butt;stroke-linejoin:miter;stroke:rgb(0%,0%,0%);stroke-opacity:1;stroke-miterlimit:10;" d="M 168.605469 149.300781 L 158.792969 171.390625 "/>
<path style="fill:none;stroke-width:1;stroke-linecap:butt;stroke-linejoin:miter;stroke:rgb(0%,0%,0%);stroke-opacity:1;stroke-miterlimit:10;" d="M 168.605469 149.300781 L 168.605469 149.300781 M 170.261719 146.800781 L 168.621094 146.300781 M 171.921875 144.300781 L 168.636719 143.300781 M 173.582031 141.800781 L 168.652344 140.300781 M 175.242188 139.304688 L 168.667969 137.300781 M 176.84375 136.890625 L 168.683594 134.402344 "/>
<path style="fill:none;stroke-width:1.2;stroke-linecap:butt;stroke-linejoin:miter;stroke:rgb(0%,0%,0%);stroke-opacity:1;stroke-miterlimit:10;" d="M 192.640625 146.75 L 168.605469 149.300781 "/>
<path style="fill:none;stroke-width:1;stroke-linecap:butt;stroke-linejoin:miter;stroke:rgb(0%,0%,0%);stroke-opacity:1;stroke-miterlimit:10;" d="M 158.792969 171.390625 L 158.792969 171.390625 M 160.109375 174.085938 L 160.953125 173.472656 M 161.425781 176.78125 L 163.113281 175.554688 M 162.746094 179.476562 L 165.273438 177.636719 M 164.0625 182.171875 L 167.433594 179.71875 M 165.378906 184.867188 L 169.59375 181.800781 M 166.695312 187.5625 L 171.753906 183.878906 M 168.011719 190.257812 L 173.914062 185.960938 M 169.332031 192.953125 L 176.074219 188.042969 M 169.570312 193.441406 L 176.464844 188.421875 "/>
<path style="fill:none;stroke-width:1.2;stroke-linecap:butt;stroke-linejoin:miter;stroke:rgb(0%,0%,0%);stroke-opacity:1;stroke-miterlimit:10;" d="M 173.019531 190.933594 L 197.054688 188.382812 "/>
<path style="fill:none;stroke-width:1.2;stroke-linecap:butt;stroke-linejoin:miter;stroke:rgb(0%,0%,0%);stroke-opacity:1;stroke-miterlimit:10;" d="M 197.054688 188.382812 L 206.867188 166.292969 "/>
<path style="fill:none;stroke-width:1.2;stroke-linecap:butt;stroke-linejoin:miter;stroke:rgb(0%,0%,0%);stroke-opacity:1;stroke-miterlimit:10;" d="M 206.867188 166.292969 L 230.902344 163.746094 "/>
<path style="fill:none;stroke-width:1.2;stroke-linecap:butt;stroke-linejoin:miter;stroke:rgb(0%,0%,0%);stroke-opacity:1;stroke-miterlimit:10;" d="M 208.667969 160.382812 L 227.898438 158.34375 "/>
<path style="fill:none;stroke-width:1.2;stroke-linecap:butt;stroke-linejoin:miter;stroke:rgb(0%,0%,0%);stroke-opacity:1;stroke-miterlimit:10;" d="M 192.640625 146.75 L 206.867188 166.292969 "/>
<path style="fill:none;stroke-width:1.2;stroke-linecap:butt;stroke-linejoin:miter;stroke:rgb(0%,0%,0%);stroke-opacity:1;stroke-miterlimit:10;" d="M 230.902344 163.746094 L 240.714844 141.652344 "/>
<path style="fill:none;stroke-width:1.2;stroke-linecap:butt;stroke-linejoin:miter;stroke:rgb(0%,0%,0%);stroke-opacity:1;stroke-miterlimit:10;" d="M 241.011719 144.480469 L 253.03125 143.207031 "/>
<path style="fill:none;stroke-width:1.2;stroke-linecap:butt;stroke-linejoin:miter;stroke:rgb(100%,0%,0%);stroke-opacity:1;stroke-miterlimit:10;" d="M 253.03125 143.207031 L 265.050781 141.933594 "/>
<path style="fill:none;stroke-width:1.2;stroke-linecap:butt;stroke-linejoin:miter;stroke:rgb(0%,0%,0%);stroke-opacity:1;stroke-miterlimit:10;" d="M 240.414062 138.824219 L 252.433594 137.550781 "/>
<path style="fill:none;stroke-width:1.2;stroke-linecap:butt;stroke-linejoin:miter;stroke:rgb(100%,0%,0%);stroke-opacity:1;stroke-miterlimit:10;" d="M 252.433594 137.550781 L 264.449219 136.277344 "/>
<path style="fill:none;stroke-width:1.2;stroke-linecap:butt;stroke-linejoin:miter;stroke:rgb(0%,0%,0%);stroke-opacity:1;stroke-miterlimit:10;" d="M 240.714844 141.652344 L 226.488281 122.113281 "/>
<path style=" stroke:none;fill-rule:nonzero;fill:rgb(100%,100%,100%);fill-opacity:1;" d="M 260.75 133.605469 L 268.75 133.605469 L 268.75 144.605469 L 260.75 144.605469 Z M 260.75 133.605469 "/>
<g style="fill:rgb(100%,0%,0%);fill-opacity:1;">
  <use xlink:href="#glyph0-1" x="260.75" y="142.268555"/>
</g>
<path style="fill:none;stroke-width:1.2;stroke-linecap:butt;stroke-linejoin:miter;stroke:rgb(0%,0%,0%);stroke-opacity:1;stroke-miterlimit:10;" d="M 226.488281 122.113281 L 202.449219 124.660156 "/>
<path style="fill:none;stroke-width:1.2;stroke-linecap:butt;stroke-linejoin:miter;stroke:rgb(0%,0%,0%);stroke-opacity:1;stroke-miterlimit:10;" d="M 224.683594 128.023438 L 205.453125 130.0625 "/>
<path style="fill:none;stroke-width:1.2;stroke-linecap:butt;stroke-linejoin:miter;stroke:rgb(0%,0%,0%);stroke-opacity:1;stroke-miterlimit:10;" d="M 202.449219 124.660156 L 192.640625 146.75 "/>
<path style=" stroke:none;fill-rule:nonzero;fill:rgb(0%,0%,0%);fill-opacity:1;" d="M 192.640625 146.75 L 189.4375 132.203125 L 181.980469 136.34375 Z M 192.640625 146.75 "/>
<path style=" stroke:none;fill-rule:nonzero;fill:rgb(100%,100%,100%);fill-opacity:1;" d="M 169.761719 130.148438 L 175.761719 130.148438 L 175.761719 141.148438 L 169.761719 141.148438 Z M 169.761719 130.148438 "/>
<g style="fill:rgb(20%,80%,80%);fill-opacity:1;">
  <use xlink:href="#glyph0-2" x="169.761719" y="138.811523"/>
</g>
<path style=" stroke:none;fill-rule:nonzero;fill:rgb(100%,100%,100%);fill-opacity:1;" d="M 157.1875 102.167969 L 172.1875 102.167969 L 172.1875 113.167969 L 157.1875 113.167969 Z M 157.1875 102.167969 "/>
<g style="fill:rgb(100%,0%,0%);fill-opacity:1;">
  <use xlink:href="#glyph0-1" x="157.1875" y="110.831055"/>
  <use xlink:href="#glyph0-3" x="164.529297" y="110.831055"/>
</g>
<path style="fill:none;stroke-width:1.2;stroke-linecap:butt;stroke-linejoin:miter;stroke:rgb(0%,0%,0%);stroke-opacity:1;stroke-miterlimit:10;" d="M 70.914062 163.28125 L 66.007812 174.328125 "/>
<path style="fill:none;stroke-width:1.2;stroke-linecap:butt;stroke-linejoin:miter;stroke:rgb(100%,0%,0%);stroke-opacity:1;stroke-miterlimit:10;" d="M 66.007812 174.328125 L 61.101562 185.375 "/>
<path style="fill:none;stroke-width:1.2;stroke-linecap:butt;stroke-linejoin:miter;stroke:rgb(0%,0%,0%);stroke-opacity:1;stroke-miterlimit:10;" d="M 76.109375 165.589844 L 71.207031 176.636719 "/>
<path style="fill:none;stroke-width:1.2;stroke-linecap:butt;stroke-linejoin:miter;stroke:rgb(100%,0%,0%);stroke-opacity:1;stroke-miterlimit:10;" d="M 71.207031 176.636719 L 66.300781 187.683594 "/>
<path style="fill:none;stroke-width:1.2;stroke-linecap:butt;stroke-linejoin:miter;stroke:rgb(0%,0%,0%);stroke-opacity:1;stroke-miterlimit:10;" d="M 73.511719 164.4375 L 59.285156 144.894531 "/>
<path style=" stroke:none;fill-rule:nonzero;fill:rgb(100%,100%,100%);fill-opacity:1;" d="M 55.703125 181.027344 L 63.703125 181.027344 L 63.703125 192.027344 L 55.703125 192.027344 Z M 55.703125 181.027344 "/>
<g style="fill:rgb(100%,0%,0%);fill-opacity:1;">
  <use xlink:href="#glyph0-1" x="55.703125" y="189.69043"/>
</g>
<path style="fill:none;stroke-width:1.2;stroke-linecap:butt;stroke-linejoin:miter;stroke:rgb(0%,0%,0%);stroke-opacity:1;stroke-miterlimit:10;" d="M 59.285156 144.894531 L 47.269531 146.167969 "/>
<path style="fill:none;stroke-width:1.2;stroke-linecap:butt;stroke-linejoin:miter;stroke:rgb(0%,80%,0%);stroke-opacity:1;stroke-miterlimit:10;" d="M 47.269531 146.167969 L 35.25 147.445312 "/>
<path style=" stroke:none;fill-rule:nonzero;fill:rgb(100%,100%,100%);fill-opacity:1;" d="M 25.25 141.945312 L 35.25 141.945312 L 35.25 152.945312 L 25.25 152.945312 Z M 25.25 141.945312 "/>
<g style="fill:rgb(0%,80%,0%);fill-opacity:1;">
  <use xlink:href="#glyph0-4" x="25.25" y="150.608398"/>
  <use xlink:href="#glyph0-5" x="31.763672" y="150.608398"/>
</g>
</g>
</svg>

<svg xmlns="http://www.w3.org/2000/svg" xmlns:xlink="http://www.w3.org/1999/xlink" width="300pt" height="300pt" viewBox="0 0 300 300"><defs><symbol overflow="visible"><path d="M.453 1.594v-7.938h4.5v7.938zm.5-.5h3.5v-6.938h-3.5zm0 0"/></symbol><symbol overflow="visible" id="a"><path d="M3.547-5.953c-.65 0-1.164.242-1.547.72-.375.48-.563 1.13-.563 1.952 0 .835.188 1.49.563 1.967.383.48.898.72 1.547.72.644 0 1.156-.24 1.53-.72.376-.476.564-1.132.564-1.968 0-.822-.187-1.474-.562-1.954-.375-.477-.887-.72-1.53-.72zm0-.734c.914 0 1.648.312 2.203.937.55.617.828 1.438.828 2.47 0 1.042-.277 1.87-.828 2.483-.555.617-1.29.922-2.203.922-.93 0-1.668-.305-2.22-.922C.774-1.41.5-2.237.5-3.28c0-1.033.273-1.853.828-2.47.55-.625 1.29-.938 2.22-.938zm0 0"/></symbol><symbol overflow="visible" id="b"><path d="M.89-6.563h3.766v.75h-2.89v1.938h2.61v.734h-2.61V0H.89zm0 0"/></symbol><symbol overflow="visible" id="c"><path d="M.89-6.563h.876v2.688H5v-2.688h.89V0H5v-3.125H1.766V0H.89zm0 0"/></symbol><symbol overflow="visible" id="d"><path d="M5.797-6.063v.938c-.305-.27-.625-.473-.97-.61-.335-.144-.686-.218-1.06-.218-.75 0-1.33.23-1.736.687-.397.46-.592 1.12-.592 1.985 0 .866.195 1.526.593 1.983.408.46.986.688 1.736.688.375 0 .726-.066 1.062-.203.344-.132.664-.343.97-.625V-.5c-.314.21-.642.367-.986.47-.343.1-.714.155-1.11.155-.99 0-1.772-.3-2.343-.906C.784-1.396.5-2.228.5-3.28c0-1.052.285-1.88.86-2.486.57-.613 1.35-.92 2.343-.92.395-.002.766.053 1.11.155.35.104.68.26.984.468zm0 0"/></symbol><symbol overflow="visible" id="e"><path d="M.844-6.844h.812V0H.844zm0 0"/></symbol></defs><g><path fill="#fff" d="M0 0h300v300H0z"/><path d="M41.465 99.715l22.992 7.45M64.457 107.164l5.05 23.637M68.168 128.293l-5.668 3.02" stroke-width="1.2" stroke="#000" stroke-miterlimit="10" fill="none"/><path d="M62.5 131.313l-5.668 3.02" stroke-width="1.2" stroke="#f00" stroke-miterlimit="10" fill="none"/><path d="M70.844 133.313l-5.668 3.02" stroke-width="1.2" stroke="#000" stroke-miterlimit="10" fill="none"/><path d="M65.176 136.332l-5.668 3.02" stroke-width="1.2" stroke="#f00" stroke-miterlimit="10" fill="none"/><path d="M69.508 130.8l11.496 3.727" stroke-width="1.2" stroke="#000" stroke-miterlimit="10" fill="none"/><path d="M81.004 134.527L92.5 138.25" stroke-width="1.2" stroke="#f00" stroke-miterlimit="10" fill="none"/><path d="M50.168 131.344h8v11h-8zm0 0" fill="#fff"/><use xlink:href="#a" x="50.168" y="140.007" fill="#f00"/><path d="M97.55 161.887m-.11-2.996l-1.018.22m.914-3.22l-2.04.438m1.93-3.433l-3.058.652m2.953-3.652l-4.077.87m3.97-3.867l-5.1 1.09m4.993-4.09l-6.117 1.31m6.01-4.306l-7.14 1.524m7.03-4.524l-8.155 1.743m8.137-2.286l-8.344 1.78" stroke="#000" stroke-miterlimit="10" fill="none"/><path d="M88.5 132.75h8v11h-8zm0 0" fill="#fff"/><use xlink:href="#a" x="88.5" y="141.413" fill="#f00"/><path d="M97.55 161.887l.02 24.172M97.55 161.887l-24.038 2.55M120.53 154.398l-22.98 7.49M97.57 186.06l22.996 7.448" stroke-width="1.2" stroke="#000" stroke-miterlimit="10" fill="none"/><path d="M97.57 186.06m-2.695 1.315l.613.844m-3.308.475l1.226 1.684m-3.922-.368l1.84 2.527m-4.535-1.212l2.456 3.37m-5.152-2.053l3.07 4.214m-5.766-2.895l3.684 5.055m-6.38-3.74l4.298 5.9m-6.992-4.582l4.91 6.742m-5.398-6.504l5.02 6.898" stroke="#000" stroke-miterlimit="10" fill="none"/><path d="M134.758 173.94l-17.645 17.064 6.907 5.008zm0 0"/><path d="M134.758 173.94L120.53 154.4M158.793 171.39l-24.035 2.55M120.53 154.398l9.81-22.09" stroke-width="1.2" stroke="#000" stroke-miterlimit="10" fill="none"/><path d="M120.53 154.398m-.928-2.85l-.922.487m-.008-3.344l-1.84.982m.91-3.832l-2.762 1.472m1.832-4.324l-3.68 1.96m2.75-4.81l-4.597 2.448m3.672-5.305l-5.523 2.943m4.593-5.793l-6.44 3.433m5.51-6.285l-7.363 3.922m7.196-4.44l-7.532 4.01" stroke="#000" stroke-miterlimit="10" fill="none"/><path d="M130.34 132.31l24.04-2.552M154.38 129.758l14.225 19.543" stroke-width="1.2" stroke="#000" stroke-miterlimit="10" fill="none"/><path d="M154.38 129.758m1.675-2.488l-.953-.422m2.628-2.067l-1.906-.846m3.582-1.64l-2.86-1.27m4.536-1.22l-3.812-1.69m5.488-.798l-4.766-2.117m6.442-.372l-5.72-2.54m7.39.052l-6.667-2.965m8.344.477l-7.62-3.387m7.926 2.933l-7.797-3.46" stroke="#000" stroke-miterlimit="10" fill="none"/><path d="M168.605 149.3l-9.812 22.09" stroke-width="1.2" stroke="#000" stroke-miterlimit="10" fill="none"/><path d="M168.605 149.3m1.657-2.5l-1.64-.5m3.3-2l-3.285-1m4.945-1.5l-4.93-1.5m6.59-.995l-6.574-2.004m8.176-.41l-8.16-2.488" stroke="#000" stroke-miterlimit="10" fill="none"/><path d="M192.64 146.75l-24.035 2.55" stroke-width="1.2" stroke="#000" stroke-miterlimit="10" fill="none"/><path d="M158.793 171.39m1.316 2.696l.843-.613m.473 3.308l1.687-1.225m-.367 3.922l2.527-1.84m-1.21 4.535l3.37-2.453m-2.054 5.147l4.214-3.066m-2.9 5.762l5.06-3.683m-3.742 6.378l5.902-4.297m-4.582 6.993l6.742-4.91m-6.504 5.398l6.895-5.018" stroke="#000" stroke-miterlimit="10" fill="none"/><path d="M173.02 190.934l24.035-2.55M197.055 188.383l9.812-22.09M206.867 166.293l24.035-2.547M208.668 160.383l19.23-2.04M192.64 146.75l14.227 19.543M230.902 163.746l9.813-22.094M241.012 144.48l12.02-1.273" stroke-width="1.2" stroke="#000" stroke-miterlimit="10" fill="none"/><path d="M253.03 143.207l12.02-1.273" stroke-width="1.2" stroke="#f00" stroke-miterlimit="10" fill="none"/><path d="M240.414 138.824l12.02-1.273" stroke-width="1.2" stroke="#000" stroke-miterlimit="10" fill="none"/><path d="M252.434 137.55l12.015-1.273" stroke-width="1.2" stroke="#f00" stroke-miterlimit="10" fill="none"/><path d="M240.715 141.652l-14.227-19.54" stroke-width="1.2" stroke="#000" stroke-miterlimit="10" fill="none"/><path d="M260.75 133.605h8v11h-8zm0 0" fill="#fff"/><use xlink:href="#a" x="260.75" y="142.269" fill="#f00"/><path d="M226.488 122.113l-24.04 2.547M224.684 128.023l-19.23 2.04M202.45 124.66l-9.81 22.09" stroke-width="1.2" stroke="#000" stroke-miterlimit="10" fill="none"/><path d="M192.64 146.75l-3.202-14.547-7.458 4.14zm0 0"/><path d="M169.762 130.148h6v11h-6zm0 0" fill="#fff"/><use xlink:href="#b" x="169.762" y="138.812" fill="#3cc"/><path d="M157.188 102.168h15v11h-15zm0 0" fill="#fff"/><g fill="#f00"><use xlink:href="#a" x="157.188" y="110.831"/><use xlink:href="#c" x="164.529" y="110.831"/></g><path d="M70.914 163.28l-4.906 11.048" stroke-width="1.2" stroke="#000" stroke-miterlimit="10" fill="none"/><path d="M66.008 174.328l-4.906 11.047" stroke-width="1.2" stroke="#f00" stroke-miterlimit="10" fill="none"/><path d="M76.11 165.59l-4.903 11.047" stroke-width="1.2" stroke="#000" stroke-miterlimit="10" fill="none"/><path d="M71.207 176.637L66.3 187.684" stroke-width="1.2" stroke="#f00" stroke-miterlimit="10" fill="none"/><path d="M73.512 164.438l-14.227-19.543" stroke-width="1.2" stroke="#000" stroke-miterlimit="10" fill="none"/><path d="M55.703 181.027h8v11h-8zm0 0" fill="#fff"/><use xlink:href="#a" x="55.703" y="189.69" fill="#f00"/><path d="M59.285 144.895l-12.015 1.273" stroke-width="1.2" stroke="#000" stroke-miterlimit="10" fill="none"/><path d="M47.27 146.168l-12.02 1.277" stroke-width="1.2" stroke="#0c0" stroke-miterlimit="10" fill="none"/><path d="M25.25 141.945h10v11h-10zm0 0" fill="#fff"/><g fill="#0c0"><use xlink:href="#d" x="25.25" y="150.608"/><use xlink:href="#e" x="31.764" y="150.608"/></g></g></svg>
